; G-Code generated by Simplify3D(TM) Version 2.1.2
; Oct 15, 2014 at 7:17:21 AM
; Settings Summary
;   processName,Process1
;   applyToModels,fan duct HSv4
;   printMaterial,PLA
;   printQuality,Medium
;   extruderName,Right Extruder,Left Extruder
;   extruderToolheadNumber,0,1
;   extruderDiameter,0.35,0.35
;   extruderAutoWidth,0,0
;   extruderWidth,0.4,0.4
;   extrusionMultiplier,0.9,0.9
;   extruderUseRetract,1,1
;   extruderRetractionDistance,0.5,1
;   extruderExtraRestartDistance,0,0
;   extruderRetractionZLift,0,0
;   extruderRetractionSpeed,1800,1600
;   extruderUseCoasting,0,1
;   extruderCoastingDistance,0.2,0.2
;   extruderUseWipe,0,1
;   extruderWipeDistance,5,5
;   primaryExtruder,0
;   layerHeight,0.2
;   topSolidLayers,3
;   bottomSolidLayers,3
;   perimeterOutlines,3
;   printPerimetersInsideOut,1
;   startPointOption,2
;   startPointOriginX,0
;   startPointOriginY,0
;   startPointOriginZ,300
;   sequentialIslands,0
;   spiralVaseMode,0
;   firstLayerHeightRatio,0.9
;   firstLayerUnderspeed,0.5
;   useRaft,0
;   raftLayers,3
;   raftOffset,3
;   raftSeparationDistance,0.14
;   raftInfill,85
;   disableRaftBaseLayers,0
;   useSkirt,1
;   skirtLayers,1
;   skirtOutlines,2
;   skirtOffset,4
;   infillExtruder,0
;   externalInfillPattern,Rectilinear
;   infillPercentage,74
;   outlineOverlapPercentage,15
;   minInfillLength,5
;   infillLayerInterval,1
;   randomInfillStartPoint,1
;   infillAngles,45,-45
;   generateSupport,1
;   supportExtruder,0
;   supportInfill,30
;   supportExtraInflation,0
;   supportLayerInterval,1
;   supportHorizontalPartOffset,0.3
;   supportUpperSeparationLayers,1
;   supportLowerSeparationLayers,1
;   supportGridSpacing,4
;   maxOverhangAngle,45
;   supportAngles,0
;   temperatureName,Right Extruder,Left Extruder,Heated Bed
;   temperatureNumber,0,1,2
;   temperatureSetpointCount,1,1,1
;   temperatureSetpointLayers,1,1,1
;   temperatureSetpointTemperatures,220,220,40
;   temperatureStabilizeAtStartup,1,0,1
;   temperatureHeatedBed,0,0,1
;   temperatureRelayBetweenLayers,0,0,0
;   temperatureRelayBetweenLoops,0,0,0
;   fanLayers,1,2
;   fanSpeeds,0,100
;   blipFanToFullPower,1
;   adjustSpeedForCooling,1
;   minSpeedLayerTime,15
;   minCoolingSpeedSlowdown,20
;   increaseFanForCooling,0
;   minFanLayerTime,45
;   maxCoolingFanSpeed,100
;   increaseFanForBridging,1
;   bridgingFanSpeed,100
;   use5D,1
;   relativeEdistances,0
;   allowEaxisZeroing,0
;   includeM10123,0
;   stickySupport,1
;   detectArcs,0
;   arcReplaceG2G3,0
;   arcRadialCompensation,1
;   gcodeXoffset,0
;   gcodeYoffset,0
;   gcodeZoffset,0
;   overrideMachineDefinition,1
;   machineTypeOverride,0
;   strokeXoverride,230
;   strokeYoverride,260
;   strokeZoverride,200
;   originOffsetXoverride,0
;   originOffsetYoverride,0
;   originOffsetZoverride,0
;   homeXdirOverride,-1
;   homeYdirOverride,-1
;   homeZdirOverride,-1
;   flipXoverride,1
;   flipYoverride,-1
;   flipZoverride,1
;   startingGcode,M201 X1000 Y1000 Z500,M202 X1000 Y1000 Z500,M204 S1000,G28 F1200 ; home all axes,T0 ; switch to right extruder,G1 Z0.2 ; raise nozzle,G92 E0 ; zero extruder,G1 E3 F225 ; purge nozzle,G1 Y15 Z0.05 F1200 ; slow wipe,G1 Y20 Z0.25 ; lift
;   layerChangeGcode,
;   toolChangeGcode,
;   endingGcode,M104 S0 T0 ; turn off right extruder,M104 S0 T1 ; turn off left extruder,M140 S0 T0 ; turn off bed,G1 Z200 F1200 ; drop bed,G28 X0 ; home X axis,M84 ; disable motors
;   createX3G,0
;   celebration,0
;   celebrationSong,Random Song
;   postProcessing,
;   defaultSpeed,3600
;   outlineUnderspeed,0.5
;   supportUnderspeed,0.8
;   rapidXYspeed,4800
;   rapidZspeed,1000
;   minBridgingArea,50
;   bridgingExtrusionMultiplier,1
;   bridgingSpeedMultiplier,1
;   filamentDiameter,1.75
;   filamentPricePerKg,46
;   useMinPrintHeight,0
;   minPrintHeight,0
;   useMaxPrintHeight,0
;   maxPrintHeight,0
;   overlapRemoval,0
;   overlapRemovalPercentage,0.3
;   useDiaphragm,0
;   diaphragmLayerInterval,20
;   robustSlicing,1
;   mergeAllIntoSolid,0
;   onlyRetractWhenCrossingOutline,1
;   retractBetweenLayers,1
;   useRetractionMinTravel,0
;   retractionMinTravel,3
;   useRetractionOozeRate,0
;   retractionOozeRate,100
;   onlyWipeOutlines,1
G90 ; use absolute coordinates
M82 ; absolute extrusion distances
G21 ; set units to millimeters
M106 S0
M140 S40
M190 S40
M104 S220 T0
M109 S220 T0
M104 S220 T1
M201 X1000 Y1000 Z500
M202 X1000 Y1000 Z500
M204 S1000
G28 F1200 ; home all axes
T0 ; switch to right extruder
G1 Z0.2 ; raise nozzle
G92 E0 ; zero extruder
G1 E3 F225 ; purge nozzle
G1 Y15 Z0.05 F1200 ; slow wipe
G1 Y20 Z0.25 ; lift
G1 E-0.5 F1800
; layer 1, Z = 0.18
T0
; tool H0.2 W0.4
G0 X84.447 Y118.8 F4800
G0 Z0.18 F1000
G1 E0 F540
G1 X110.147 Y118.8 E0.7693 F1800
G1 X110.147 Y141.2 E1.4398
G1 X84.447 Y141.2 E2.2091
G1 X84.447 Y118.8 E2.8797
G0 X84.847 Y119.2 F4800
G1 X109.747 Y119.2 E3.625 F1800
G1 X109.747 Y140.8 E4.2716
G1 X84.847 Y140.8 E5.017
G1 X84.847 Y119.2 E5.6635
G1 E5.1635 F1800
G0 X89.247 Y123.6 F4800
G1 E5.6635 F1800
G1 X105.347 Y123.6 E6.1455 F900
G1 X105.347 Y136.4 E6.5286
G1 X89.247 Y136.4 E7.0106
G1 X89.247 Y123.6 E7.3937
G0 X89.647 Y124 F4800
G1 X89.647 Y136 E7.7529 F900
G1 X104.947 Y136 E8.2109
G1 X104.947 Y124 E8.5701
G1 X89.647 Y124 E9.0281
G1 E8.5281 F1800
G0 X105.871 Y122.033 F4800
G1 E9.0281 F1800
G1 X109.347 Y122.033 E9.1322 F1440
G1 X109.347 Y123.367 E9.1721
G1 X106.047 Y123.367 E9.2709
G1 X106.047 Y124.7 E9.3108
G1 X109.347 Y124.7 E9.4096
G1 X109.347 Y126.033 E9.4495
G1 X107.08 Y126.033 E9.5174
G1 X107.08 Y127.367 E9.5573
G1 X109.347 Y127.367 E9.6251
G1 X109.347 Y128.7 E9.6651
G1 X107.08 Y128.7 E9.7329
G1 X107.08 Y130.033 E9.7728
G1 X109.347 Y130.033 E9.8407
G1 X109.347 Y131.367 E9.8806
G1 X107.08 Y131.367 E9.9485
G1 X107.08 Y132.7 E9.9884
G1 X109.347 Y132.7 E10.0563
G1 X109.347 Y134.033 E10.0962
G1 X107.08 Y134.033 E10.164
G1 X107.08 Y135.367 E10.204
G1 X109.347 Y135.367 E10.2718
G1 X109.347 Y136.7 E10.3117
G1 X108.766 Y136.7 E10.3291
G1 X108.766 Y137.086 E10.3407
G1 X109.347 Y137.086 E10.3581
G1 X109.347 Y136.7 E10.3696
G1 E9.8696 F1800
G0 X110.547 Y136.7 F4800
G1 E10.3696 F1800
G1 X112.606 Y136.7 E10.4312 F1440
G1 X112.606 Y137.086 E10.4428
G1 X110.547 Y137.086 E10.5044
G1 X110.547 Y136.7 E10.516
G1 X110.547 Y135.367 E10.5559
G1 E10.0559 F1800
G0 X112.606 Y136.7 F4800
G1 E10.5559 F1800
G1 X112.606 Y135.92 E10.5792 F1440
G1 X118.511 Y135.92 E10.756
G1 X118.511 Y136.7 E10.7794
G1 X118.511 Y137.922 E10.8159
G1 X122.351 Y137.922 E10.9309
G1 X122.351 Y136.98 E10.9591
G1 X122.905 Y136.98 E10.9756
G1 X122.905 Y136.7 E10.984
G1 X118.511 Y136.7 E11.1156
G1 E10.6156 F1800
G0 X127.152 Y136.7 F4800
G1 E11.1156 F1800
G1 X134.368 Y136.7 E11.3316 F1440
G1 X134.368 Y138.033 E11.3715
G1 X127.152 Y138.033 E11.5875
G1 X127.152 Y138.225 E11.5932
G1 X130.528 Y138.225 E11.6943
G1 X130.528 Y138.476 E11.7018
G1 X134.368 Y138.476 E11.8167
G1 X134.368 Y138.033 E11.83
G1 E11.33 F1800
G0 X135.961 Y138.033 F4800
G1 E11.83 F1800
G1 X135.961 Y138.27 E11.8371 F1440
G1 X139.801 Y138.27 E11.952
G1 X139.801 Y138.033 E11.9591
G1 X135.961 Y138.033 E12.0741
G1 X135.961 Y136.7 E12.114
G1 X139.801 Y136.7 E12.2289
G1 X139.801 Y135.5 E12.2648
G1 X142.369 Y135.5 E12.3417
G1 X142.369 Y135.367 E12.3457
G1 X110.547 Y135.367 E13.2983
G1 X110.547 Y134.033 E13.3382
G1 X142.369 Y134.033 E14.2907
G1 X142.369 Y132.7 E14.3306
G1 X110.547 Y132.7 E15.2832
G1 X110.547 Y131.367 E15.3231
G1 X138.92 Y131.367 E16.1724
G1 X138.92 Y130.457 E16.1996
G1 X142.009 Y130.457 E16.2921
G1 X142.009 Y130.033 E16.3048
G1 X110.547 Y130.033 E17.2466
G1 X110.547 Y128.7 E17.2865
G1 X142.009 Y128.7 E18.2283
G1 X142.009 Y127.367 E18.2682
G1 X110.547 Y127.367 E19.21
G1 X110.547 Y126.033 E19.2499
G1 X142.292 Y126.033 E20.2001
G1 X142.292 Y124.7 E20.24
G1 X110.547 Y124.7 E21.1903
G1 X110.547 Y124.08 E21.2088
G1 X110.927 Y124.08 E21.2202
G1 X110.927 Y123.367 E21.2416
G1 X117.025 Y123.367 E21.4241
G1 X117.025 Y122.033 E21.464
G1 X113.185 Y122.033 E21.579
G1 E21.079 F1800
G0 X117.025 Y123.367 F4800
G1 E21.579 F1800
G1 X117.025 Y124.08 E21.6003 F1440
G1 X117.471 Y124.08 E21.6137
G1 X117.471 Y123.367 E21.635
G1 X123.91 Y123.367 E21.8278
G1 X123.91 Y122.033 E21.8677
G1 X120.07 Y122.033 E21.9826
G1 E21.4826 F1800
G0 X123.91 Y123.367 F4800
G1 E21.9826 F1800
G1 X123.91 Y124.08 E22.004 F1440
G1 X125.893 Y124.08 E22.0633
G1 X125.893 Y123.367 E22.0847
G1 X132.358 Y123.367 E22.2782
G1 X132.358 Y122.694 E22.2984
G1 X129.733 Y122.694 E22.3769
G1 X129.733 Y122.033 E22.3967
G1 X125.893 Y122.033 E22.5117
G1 E22.0117 F1800
G0 X133.012 Y123.367 F4800
G1 E22.5117 F1800
G1 X136.852 Y123.367 E22.6266 F1440
G1 X136.852 Y124.08 E22.648
G1 X138.452 Y124.08 E22.6958
G1 X138.452 Y123.367 E22.7172
G1 X142.292 Y123.367 E22.8321
G1 X142.292 Y124.7 E22.8721
G1 E22.3721 F1800
; layer 2, Z = 0.38
M106 S255
G0 X105.347 Y123.6 F4800
G0 Z0.38 F1000
G1 E22.8721 F1800
G1 X105.347 Y136.4 E23.2552 F1615
G1 X89.247 Y136.4 E23.7371
G1 X89.247 Y123.6 E24.1203
G1 X105.347 Y123.6 E24.6022
G0 X104.947 Y124 F4800
G1 X89.647 Y124 E25.0602 F1615
G1 X89.647 Y136 E25.4194
G1 X104.947 Y136 E25.8774
G1 X104.947 Y124 E26.2366
G1 E25.7366 F1800
G0 X105.871 Y122.033 F4800
G1 E26.2366 F1800
G1 X109.711 Y122.033 E26.3516 F2584
G1 X109.711 Y123.367 E26.3915
G1 X106.047 Y123.367 E26.5012
G1 X106.047 Y124.7 E26.5411
G1 X142.292 Y124.7 E27.626
G1 X142.292 Y126.033 E27.6659
G1 X107.08 Y126.033 E28.72
G1 X107.08 Y127.367 E28.7599
G1 X142.009 Y127.367 E29.8054
G1 X142.009 Y128.7 E29.8454
G1 X107.08 Y128.7 E30.8909
G1 X107.08 Y130.033 E30.9308
G1 X142.009 Y130.033 E31.9764
G1 X142.009 Y130.457 E31.9891
G1 X138.92 Y130.457 E32.0816
G1 X138.92 Y131.367 E32.1088
G1 X107.08 Y131.367 E33.0619
G1 X107.08 Y132.7 E33.1018
G1 X142.369 Y132.7 E34.1582
G1 X142.369 Y134.033 E34.1981
G1 X107.08 Y134.033 E35.2544
G1 X107.08 Y135.367 E35.2943
G1 X142.369 Y135.367 E36.3507
G1 X142.369 Y135.5 E36.3547
G1 X139.801 Y135.5 E36.4315
G1 X139.801 Y136.7 E36.4675
G1 X135.961 Y136.7 E36.5824
G1 X135.961 Y138.033 E36.6223
G1 X139.801 Y138.033 E36.7373
G1 X139.801 Y138.27 E36.7444
G1 X135.961 Y138.27 E36.8593
G1 X135.961 Y138.033 E36.8664
G1 E36.3664 F1800
G0 X134.367 Y138.033 F4800
G1 E36.8664 F1800
G1 X134.368 Y138.476 E36.8797 F2584
G1 X130.528 Y138.476 E36.9946
G1 X130.528 Y138.225 E37.0021
G1 X127.152 Y138.225 E37.1032
G1 X127.152 Y138.033 E37.1089
G1 X134.368 Y138.033 E37.3249
G1 X134.368 Y136.7 E37.3648
G1 X127.152 Y136.7 E37.5808
G1 E37.0808 F1800
G0 X118.511 Y136.7 F4800
G1 E37.5808 F1800
G1 X122.905 Y136.7 E37.7123 F2584
G1 X122.905 Y136.98 E37.7207
G1 X122.351 Y136.98 E37.7373
G1 X122.351 Y137.922 E37.7655
G1 X118.511 Y137.922 E37.8805
G1 X118.511 Y136.7 E37.917
G1 X118.511 Y135.92 E37.9404
G1 X112.606 Y135.92 E38.1171
G1 X112.606 Y136.7 E38.1405
G1 E37.6405 F1800
G0 X108.766 Y136.7 F4800
G1 E38.1405 F1800
G1 X112.606 Y136.7 E38.2554 F2584
G1 X112.606 Y137.086 E38.267
G1 X108.766 Y137.086 E38.3819
G1 X108.766 Y136.7 E38.3935
G1 X108.766 Y135.92 E38.4168
G1 X107.08 Y135.92 E38.4673
G1 X107.08 Y135.367 E38.4839
G1 E37.9839 F1800
G0 X109.711 Y123.367 F4800
G1 E38.4839 F1800
G1 X109.711 Y124.08 E38.5052 F2584
G1 X110.927 Y124.08 E38.5416
G1 X110.927 Y123.367 E38.563
G1 X117.025 Y123.367 E38.7455
G1 X117.025 Y122.033 E38.7854
G1 X113.185 Y122.033 E38.9004
G1 E38.4004 F1800
G0 X117.025 Y123.367 F4800
G1 E38.9004 F1800
G1 X117.025 Y124.08 E38.9217 F2584
G1 X117.471 Y124.08 E38.9351
G1 X117.471 Y123.367 E38.9564
G1 X123.91 Y123.367 E39.1492
G1 X123.91 Y122.033 E39.1891
G1 X120.07 Y122.033 E39.304
G1 E38.804 F1800
G0 X123.91 Y123.367 F4800
G1 E39.304 F1800
G1 X123.91 Y124.08 E39.3254 F2584
G1 X125.893 Y124.08 E39.3847
G1 X125.893 Y123.367 E39.4061
G1 X132.358 Y123.367 E39.5996
G1 X132.358 Y122.694 E39.6198
G1 X129.733 Y122.694 E39.6984
G1 X129.733 Y122.033 E39.7181
G1 X125.893 Y122.033 E39.8331
G1 E39.3331 F1800
G0 X133.012 Y123.367 F4800
G1 E39.8331 F1800
G1 X136.852 Y123.367 E39.948 F2584
G1 X136.852 Y124.08 E39.9694
G1 X138.452 Y124.08 E40.0173
G1 X138.452 Y123.367 E40.0386
G1 X142.292 Y123.367 E40.1536
G1 X142.292 Y124.7 E40.1935
G1 E39.6935 F1800
; layer 3, Z = 0.58
G0 X105.347 Y123.6 F4800
G0 Z0.58 F1000
G1 E40.1935 F1800
G1 X105.347 Y136.4 E40.5766 F1615
G1 X89.247 Y136.4 E41.0586
G1 X89.247 Y123.6 E41.4417
G1 X105.347 Y123.6 E41.9237
G0 X104.947 Y124 F4800
G1 X89.647 Y124 E42.3816 F1615
G1 X89.647 Y136 E42.7409
G1 X104.947 Y136 E43.1988
G1 X104.947 Y124 E43.5581
G1 E43.0581 F1800
G0 X105.871 Y122.033 F4800
G1 E43.5581 F1800
G1 X109.711 Y122.033 E43.673 F2584
G1 X109.711 Y123.367 E43.7129
G1 X106.047 Y123.367 E43.8226
G1 X106.047 Y124.7 E43.8625
G1 X142.292 Y124.7 E44.9474
G1 X142.292 Y126.033 E44.9874
G1 X107.08 Y126.033 E46.0414
G1 X107.08 Y127.367 E46.0813
G1 X142.009 Y127.367 E47.1269
G1 X142.009 Y128.7 E47.1668
G1 X107.08 Y128.7 E48.2123
G1 X107.08 Y130.033 E48.2523
G1 X142.009 Y130.033 E49.2978
G1 X142.009 Y130.457 E49.3105
G1 X138.92 Y130.457 E49.403
G1 X138.92 Y131.367 E49.4302
G1 X107.08 Y131.367 E50.3833
G1 X107.08 Y132.7 E50.4232
G1 X142.369 Y132.7 E51.4796
G1 X142.369 Y134.033 E51.5195
G1 X107.08 Y134.033 E52.5758
G1 X107.08 Y135.367 E52.6157
G1 X142.369 Y135.367 E53.6721
G1 X142.369 Y135.5 E53.6761
G1 X139.801 Y135.5 E53.753
G1 X139.801 Y136.7 E53.7889
G1 X135.961 Y136.7 E53.9038
G1 X135.961 Y138.033 E53.9437
G1 X139.801 Y138.033 E54.0587
G1 X139.801 Y138.27 E54.0658
G1 X135.961 Y138.27 E54.1807
G1 X135.961 Y138.033 E54.1878
G1 E53.6878 F1800
G0 X134.367 Y138.033 F4800
G1 E54.1878 F1800
G1 X134.368 Y138.476 E54.2011 F2584
G1 X130.528 Y138.476 E54.316
G1 X130.528 Y138.225 E54.3235
G1 X127.152 Y138.225 E54.4246
G1 X127.152 Y138.033 E54.4303
G1 X134.368 Y138.033 E54.6463
G1 X134.368 Y136.7 E54.6862
G1 X127.152 Y136.7 E54.9022
G1 E54.4022 F1800
G0 X118.511 Y136.7 F4800
G1 E54.9022 F1800
G1 X122.905 Y136.7 E55.0338 F2584
G1 X122.905 Y136.98 E55.0421
G1 X122.351 Y136.98 E55.0587
G1 X122.351 Y137.922 E55.0869
G1 X118.511 Y137.922 E55.2019
G1 X118.511 Y136.7 E55.2384
G1 X118.511 Y135.92 E55.2618
G1 X112.606 Y135.92 E55.4385
G1 X112.606 Y136.7 E55.4619
G1 E54.9619 F1800
G0 X108.766 Y136.7 F4800
G1 E55.4619 F1800
G1 X112.606 Y136.7 E55.5768 F2584
G1 X112.606 Y137.086 E55.5884
G1 X108.766 Y137.086 E55.7033
G1 X108.766 Y136.7 E55.7149
G1 X108.766 Y135.92 E55.7382
G1 X107.08 Y135.92 E55.7887
G1 X107.08 Y135.367 E55.8053
G1 E55.3053 F1800
G0 X109.711 Y123.367 F4800
G1 E55.8053 F1800
G1 X109.711 Y124.08 E55.8266 F2584
G1 X110.927 Y124.08 E55.863
G1 X110.927 Y123.367 E55.8844
G1 X117.025 Y123.367 E56.0669
G1 X117.025 Y122.033 E56.1068
G1 X113.185 Y122.033 E56.2218
G1 E55.7218 F1800
G0 X117.025 Y123.367 F4800
G1 E56.2218 F1800
G1 X117.025 Y124.08 E56.2431 F2584
G1 X117.471 Y124.08 E56.2565
G1 X117.471 Y123.367 E56.2779
G1 X123.91 Y123.367 E56.4706
G1 X123.91 Y122.033 E56.5105
G1 X120.07 Y122.033 E56.6255
G1 E56.1255 F1800
G0 X123.91 Y123.367 F4800
G1 E56.6255 F1800
G1 X123.91 Y124.08 E56.6468 F2584
G1 X125.893 Y124.08 E56.7062
G1 X125.893 Y123.367 E56.7275
G1 X132.358 Y123.367 E56.921
G1 X132.358 Y122.694 E56.9412
G1 X129.733 Y122.694 E57.0198
G1 X129.733 Y122.033 E57.0395
G1 X125.893 Y122.033 E57.1545
G1 E56.6545 F1800
G0 X133.012 Y123.367 F4800
G1 E57.1545 F1800
G1 X136.852 Y123.367 E57.2694 F2584
G1 X136.852 Y124.08 E57.2908
G1 X138.452 Y124.08 E57.3387
G1 X138.452 Y123.367 E57.36
G1 X142.292 Y123.367 E57.475
G1 X142.292 Y124.7 E57.5149
G1 E57.0149 F1800
; layer 4, Z = 0.78
G0 X105.347 Y123.6 F4800
G0 Z0.78 F1000
G1 E57.5149 F1800
G1 X105.347 Y136.4 E57.898 F1615
G1 X89.247 Y136.4 E58.38
G1 X89.247 Y123.6 E58.7631
G1 X105.347 Y123.6 E59.2451
G0 X104.947 Y124 F4800
G1 X89.647 Y124 E59.7031 F1615
G1 X89.647 Y136 E60.0623
G1 X104.947 Y136 E60.5203
G1 X104.947 Y124 E60.8795
G1 E60.3795 F1800
G0 X105.871 Y122.033 F4800
G1 E60.8795 F1800
G1 X109.711 Y122.033 E60.9944 F2584
G1 X109.711 Y123.367 E61.0343
G1 X106.047 Y123.367 E61.144
G1 X106.047 Y124.7 E61.1839
G1 X142.292 Y124.7 E62.2689
G1 X142.292 Y126.033 E62.3088
G1 X107.08 Y126.033 E63.3628
G1 X107.08 Y127.367 E63.4027
G1 X142.009 Y127.367 E64.4483
G1 X142.009 Y128.7 E64.4882
G1 X107.08 Y128.7 E65.5338
